X:1425
T:Thompsons Jig
O:Irland
R:Jig
M:6/8
L:1/8
Q:1/4=120
K:G
|: GED GBd | gba g2d | ege dBG | AGA B2A |
GED GBd | gba g2d | ege dBd | eaf g3 :|
|: gba ged | ege dBd | gba ged | eag ~a3 |
gba ged | ege dBA | ~B3 dBA | GBA G3 :|
(:musicend:)

[[!Ackord]]
(:music:)
